static/assets/img/icons/theme/media/media-library-1.svg

<svg height="24" viewBox="0 0 24 24" width="24" xmlns="http://www.w3.org/2000/svg"><g fill="none" fill-rule="evenodd"><path d="m0 0h24v24h-24z" opacity="0"/><g fill="#000"><rect height="13" opacity=".3" rx="2" width="20" x="2" y="9"/><rect height="2" opacity=".3" rx=".5" width="14" x="5" y="5"/><rect height="2" opacity=".3" rx=".5" width="10" x="7" y="1"/><path d="m10.8333333 20c-1.01252201 0-1.8333333-.6840094-1.8333333-1.5277778 0-.8437683.82081129-1.5277778 1.8333333-1.5277778.2142772 0 .4199685.0306341.6111111.0869335v-4.2397768c0-.3133603.1954218-.5903607.482436-.6838282l3.5138889-1.074661c.4427023-.1441681.892564.2004886.892564.6838283v1.0746609c0 .3582204-.3354001.5869998-.6111111.6528433-.3966925.0947356-1.415211.2984393-3.0555555.6111112v4.4479658c0 .0548648-.0044493.1056623-.0131263.1524655-.1089167.757122-.8823164 1.3440131-1.8202071 1.3440131z"/></g></g></svg>

<svg width="24px" height="24px" viewBox="0 0 24 24" version="1.1" xmlns="http://www.w3.org/2000/svg" xmlns:xlink="http://www.w3.org/1999/xlink">
    <title>Icon For Media-library#1</title>
    <g stroke="none" stroke-width="1" fill="none" fill-rule="evenodd">
        <rect opacity="0" x="0" y="0" width="24" height="24"></rect>
        <rect fill="#000000" opacity="0.3" x="2" y="9" width="20" height="13" rx="2"></rect>
        <rect fill="#000000" opacity="0.3" x="5" y="5" width="14" height="2" rx="0.5"></rect>
        <rect fill="#000000" opacity="0.3" x="7" y="1" width="10" height="2" rx="0.5"></rect>
        <path d="M10.8333333,20 C9.82081129,20 9,19.3159906 9,18.4722222 C9,17.6284539 9.82081129,16.9444444 10.8333333,16.9444444 C11.0476105,16.9444444 11.2533018,16.9750785 11.4444444,17.0313779 L11.4444444,12.7916011 C11.4444444,12.4782408 11.6398662,12.2012404 11.9268804,12.1077729 L15.4407693,11.0331119 C15.8834716,10.8889438 16.3333333,11.2336005 16.3333333,11.7169402 L16.3333333,12.7916011 C16.3333333,13.1498215 15.9979332,13.3786009 15.7222222,13.4444444 C15.3255297,13.53918 14.3070112,13.7428837 12.6666667,14.0555556 L12.6666667,18.5035214 C12.6666667,18.5583862 12.6622174,18.6091837 12.6535404,18.6559869 C12.5446237,19.4131089 11.771224,20 10.8333333,20 Z" fill="#000000"></path>
    </g>
</svg>
